X:265
T: To the Post and Away
N: O'Farrell's Pocket Companion v.3 (Sky ed. p.122)
M: 6/8
L: 1/8
R: jig
Q: 320
K: D
a/g/| f2e e2d| d2d ede| fgf ede| dAF D2g| f2e e2d|
d2d ede| fgf ede| d3 d3| f2f faf| faf faf| e2e ege|
ege ege| f2f faf| e2e efg| fed agf| f3 e3| e2f e2A|
e2f e2A| dfa agf| f3 e2g| fdd gee| fdd gee| fga efg|
fga efg| f2e e2d| d2d ede| fgf ede| d3 d2 ||
